packages/foundations/assets/icons/functional/images/business & payment/discount.svg

<svg xmlns="http://www.w3.org/2000/svg" width="32" height="32" fill="none"><path fill="#1A1C1F" fill-rule="evenodd" d="M15.245 2.499c-.593.196-.722.315-1.883 1.741-.431.528-.824.99-.875 1.026-.076.055-.323.002-1.45-.307-.746-.206-1.506-.389-1.688-.407-.924-.094-1.864.422-2.231 1.225-.165.359-.214.739-.295 2.29-.044.833-.089 1.286-.13 1.32-.035.029-.672.281-1.416.561s-1.458.57-1.587.645a2.16 2.16 0 0 0-.831.927c-.154.322-.165.387-.162.907.005.709.012.725 1.005 2.239.445.68.778 1.242.778 1.313 0 .073-.352.663-.828 1.388-.938 1.433-1.011 1.602-.975 2.284q.044.845.633 1.419c.352.343.42.375 2.024.977.742.279 1.366.533 1.386.566s.066.605.101 1.27c.084 1.579.134 1.936.324 2.342.383.821 1.293 1.294 2.268 1.18.176-.021.896-.195 1.6-.388s1.331-.35 1.394-.35c.084 0 .36.305 1.057 1.169.518.643 1.025 1.233 1.127 1.31.837.639 2.106.612 2.849-.059.125-.113.636-.704 1.135-1.313.657-.801.939-1.107 1.02-1.107.062 0 .686.156 1.386.348.701.191 1.421.368 1.6.394.941.133 1.89-.361 2.275-1.185.189-.404.239-.764.323-2.341.035-.665.081-1.237.101-1.27s.644-.287 1.386-.566 1.445-.555 1.564-.615c.316-.162.699-.583.9-.991.166-.337.177-.392.177-.92 0-.706.003-.697-1.011-2.241-.434-.66-.801-1.23-.815-1.267s.34-.622.787-1.302c1.042-1.584 1.039-1.577 1.039-2.285 0-.524-.012-.585-.171-.907a2.3 2.3 0 0 0-.845-.936c-.118-.07-.824-.355-1.568-.635s-1.381-.532-1.416-.561c-.041-.034-.086-.487-.13-1.32-.081-1.551-.13-1.931-.295-2.29-.367-.803-1.307-1.319-2.231-1.225-.182.018-.931.199-1.664.4-.734.202-1.374.352-1.424.334s-.454-.477-.9-1.019c-1.058-1.289-1.232-1.466-1.65-1.666-.308-.148-.409-.169-.906-.184-.44-.014-.625.004-.862.082m1.113 2.128c.17.198.613.733.985 1.188.971 1.188 1.331 1.41 2.284 1.406.451-.002.654-.041 1.86-.36.744-.196 1.398-.343 1.453-.326.133.043.134.05.227 1.678.086 1.501.137 1.772.42 2.22.149.236.458.529.733.695.103.062.787.335 1.52.608s1.363.518 1.4.546.067.101.067.162-.359.652-.797 1.313c-.439.662-.833 1.287-.876 1.39-.227.544-.215 1.244.03 1.73.06.119.454.747.876 1.395s.767 1.215.767 1.26-.04.115-.089.155-.709.305-1.469.589c-1.512.564-1.807.731-2.114 1.194-.341.516-.382.717-.469 2.289-.089 1.603-.095 1.658-.197 1.697-.04.015-.718-.141-1.507-.346-1.248-.326-1.501-.375-1.942-.382-.476-.008-.527.002-.842.167-.474.248-.653.427-1.677 1.675-.535.653-.947 1.11-1 1.11s-.465-.456-.999-1.107c-1.029-1.255-1.285-1.511-1.713-1.711-.259-.122-.37-.142-.782-.139-.417.002-.658.05-1.83.36-1.379.365-1.626.407-1.698.291-.023-.036-.082-.739-.133-1.562-.1-1.628-.142-1.829-.481-2.342-.308-.463-.595-.625-2.16-1.212-.787-.296-1.461-.574-1.496-.619-.083-.103-.111-.052.817-1.468.419-.64.814-1.3.878-1.467.15-.391.163-.991.029-1.383-.052-.154-.467-.848-.922-1.542a47 47 0 0 1-.851-1.324c-.046-.12.182-.23 1.5-.719 1.419-.527 1.707-.673 2.045-1.04.471-.511.558-.869.652-2.687.055-1.065.083-1.318.156-1.409l.089-.11 1.516.388c1.684.43 1.936.453 2.567.227.485-.173.742-.4 1.491-1.314.922-1.125 1.269-1.524 1.326-1.524.025 0 .185.162.356.36m-4.447 6.54c-.321.105-.555.262-.838.565-.381.407-.482.674-.484 1.282-.002.468.011.536.171.86.205.418.54.745.964.944.264.124.37.142.836.142s.572-.018.836-.142c.928-.435 1.377-1.458 1.059-2.414-.15-.449-.547-.899-.995-1.125-.267-.135-.377-.158-.818-.17-.322-.009-.59.012-.731.058m7.662.031c-.16.087-8.132 7.826-8.385 8.14a1.2 1.2 0 0 0-.156.357.936.936 0 0 0 .509 1.072c.242.115.708.111.927-.007.095-.051 2.02-1.904 4.278-4.117 4.442-4.352 4.323-4.22 4.245-4.706-.107-.668-.839-1.05-1.418-.739m-.379 5.885c-.542.228-.869.536-1.109 1.048-.117.25-.138.37-.138.776 0 .414.02.524.15.806.362.782 1.225 1.248 2.101 1.133a2.06 2.06 0 0 0 1.542-1.127c.133-.288.153-.396.153-.813 0-.435-.016-.515-.173-.834a2.02 2.02 0 0 0-.964-.943c-.437-.204-1.136-.225-1.562-.046"/></svg>

<svg width="32" height="32" viewBox="0 0 32 32" fill="none" xmlns="http://www.w3.org/2000/svg"><path d="M15.245 2.499 C 14.652 2.695,14.523 2.814,13.362 4.240 C 12.931 4.768,12.538 5.230,12.487 5.266 C 12.411 5.321,12.164 5.268,11.037 4.959 C 10.291 4.753,9.531 4.570,9.349 4.552 C 8.425 4.458,7.485 4.974,7.118 5.777 C 6.953 6.136,6.904 6.516,6.823 8.067 C 6.779 8.900,6.734 9.353,6.693 9.387 C 6.658 9.416,6.021 9.668,5.277 9.948 C 4.533 10.228,3.819 10.518,3.690 10.593 C 3.343 10.797,3.044 11.130,2.859 11.520 C 2.705 11.842,2.694 11.907,2.697 12.427 C 2.702 13.136,2.709 13.152,3.702 14.666 C 4.147 15.346,4.480 15.908,4.480 15.979 C 4.480 16.052,4.128 16.642,3.652 17.367 C 2.714 18.800,2.641 18.969,2.677 19.651 C 2.706 20.214,2.918 20.688,3.310 21.070 C 3.662 21.413,3.730 21.445,5.334 22.047 C 6.076 22.326,6.700 22.580,6.720 22.613 C 6.740 22.646,6.786 23.218,6.821 23.883 C 6.905 25.462,6.955 25.819,7.145 26.225 C 7.528 27.046,8.438 27.519,9.413 27.405 C 9.589 27.384,10.309 27.210,11.013 27.017 C 11.717 26.824,12.344 26.667,12.407 26.667 C 12.491 26.667,12.767 26.972,13.464 27.836 C 13.982 28.479,14.489 29.069,14.591 29.146 C 15.428 29.785,16.697 29.758,17.440 29.087 C 17.565 28.974,18.076 28.383,18.575 27.774 C 19.232 26.973,19.514 26.667,19.595 26.667 C 19.657 26.667,20.281 26.823,20.981 27.015 C 21.682 27.206,22.402 27.383,22.581 27.409 C 23.522 27.542,24.471 27.048,24.856 26.224 C 25.045 25.820,25.095 25.460,25.179 23.883 C 25.214 23.218,25.260 22.646,25.280 22.613 C 25.300 22.580,25.924 22.326,26.666 22.047 C 27.408 21.769,28.111 21.492,28.230 21.432 C 28.546 21.270,28.929 20.849,29.130 20.441 C 29.296 20.104,29.307 20.049,29.307 19.521 C 29.307 18.815,29.310 18.824,28.296 17.280 C 27.862 16.620,27.495 16.050,27.481 16.013 C 27.467 15.977,27.821 15.391,28.268 14.711 C 29.310 13.127,29.307 13.134,29.307 12.426 C 29.307 11.902,29.295 11.841,29.136 11.519 C 28.949 11.138,28.623 10.778,28.291 10.583 C 28.173 10.513,27.467 10.228,26.723 9.948 C 25.979 9.668,25.342 9.416,25.307 9.387 C 25.266 9.353,25.221 8.900,25.177 8.067 C 25.096 6.516,25.047 6.136,24.882 5.777 C 24.515 4.974,23.575 4.458,22.651 4.552 C 22.469 4.570,21.720 4.751,20.987 4.952 C 20.253 5.154,19.613 5.304,19.563 5.286 C 19.514 5.268,19.109 4.809,18.663 4.267 C 17.605 2.978,17.431 2.801,17.013 2.601 C 16.705 2.453,16.604 2.432,16.107 2.417 C 15.667 2.403,15.482 2.421,15.245 2.499 M16.358 4.627 C 16.528 4.825,16.971 5.360,17.343 5.815 C 18.314 7.003,18.674 7.225,19.627 7.221 C 20.078 7.219,20.281 7.180,21.487 6.861 C 22.231 6.665,22.885 6.518,22.940 6.535 C 23.073 6.578,23.074 6.585,23.167 8.213 C 23.253 9.714,23.304 9.985,23.587 10.433 C 23.736 10.669,24.045 10.962,24.320 11.128 C 24.423 11.190,25.107 11.463,25.840 11.736 C 26.573 12.008,27.203 12.254,27.240 12.282 C 27.277 12.310,27.307 12.383,27.307 12.444 C 27.307 12.505,26.948 13.096,26.510 13.757 C 26.071 14.419,25.677 15.044,25.634 15.147 C 25.407 15.691,25.419 16.391,25.664 16.877 C 25.724 16.996,26.118 17.624,26.540 18.272 C 26.962 18.920,27.307 19.487,27.307 19.532 C 27.307 19.577,27.267 19.647,27.218 19.687 C 27.170 19.727,26.509 19.992,25.749 20.276 C 24.237 20.840,23.942 21.007,23.635 21.470 C 23.294 21.986,23.253 22.187,23.166 23.759 C 23.077 25.362,23.071 25.417,22.969 25.456 C 22.929 25.471,22.251 25.315,21.462 25.110 C 20.214 24.784,19.961 24.735,19.520 24.728 C 19.044 24.720,18.993 24.730,18.678 24.895 C 18.204 25.143,18.025 25.322,17.001 26.570 C 16.466 27.223,16.054 27.680,16.001 27.680 C 15.947 27.680,15.536 27.224,15.002 26.573 C 13.973 25.318,13.717 25.062,13.289 24.862 C 13.030 24.740,12.919 24.720,12.507 24.723 C 12.090 24.725,11.849 24.773,10.677 25.083 C 9.298 25.448,9.051 25.490,8.979 25.374 C 8.956 25.338,8.897 24.635,8.846 23.812 C 8.746 22.184,8.704 21.983,8.365 21.470 C 8.057 21.007,7.770 20.845,6.205 20.258 C 5.418 19.962,4.744 19.684,4.709 19.639 C 4.626 19.536,4.598 19.587,5.526 18.171 C 5.945 17.531,6.340 16.871,6.404 16.704 C 6.554 16.313,6.567 15.713,6.433 15.321 C 6.381 15.167,5.966 14.473,5.511 13.779 C 5.056 13.085,4.673 12.489,4.660 12.455 C 4.614 12.335,4.842 12.225,6.160 11.736 C 7.579 11.209,7.867 11.063,8.205 10.696 C 8.676 10.185,8.763 9.827,8.857 8.009 C 8.912 6.944,8.940 6.691,9.013 6.600 L 9.102 6.490 10.618 6.878 C 12.302 7.308,12.554 7.331,13.185 7.105 C 13.670 6.932,13.927 6.705,14.676 5.791 C 15.598 4.666,15.945 4.267,16.002 4.267 C 16.027 4.267,16.187 4.429,16.358 4.627 M11.911 11.167 C 11.590 11.272,11.356 11.429,11.073 11.732 C 10.692 12.139,10.591 12.406,10.589 13.014 C 10.587 13.482,10.600 13.550,10.760 13.874 C 10.965 14.292,11.300 14.619,11.724 14.818 C 11.988 14.942,12.094 14.960,12.560 14.960 C 13.026 14.960,13.132 14.942,13.396 14.818 C 14.324 14.383,14.773 13.360,14.455 12.404 C 14.305 11.955,13.908 11.505,13.460 11.279 C 13.193 11.144,13.083 11.121,12.642 11.109 C 12.320 11.100,12.052 11.121,11.911 11.167 M19.573 11.198 C 19.413 11.285,11.441 19.024,11.188 19.338 C 11.138 19.401,11.068 19.562,11.032 19.695 C 10.919 20.116,11.137 20.575,11.541 20.767 C 11.783 20.882,12.249 20.878,12.468 20.760 C 12.563 20.709,14.488 18.856,16.746 16.643 C 21.188 12.291,21.069 12.423,20.991 11.937 C 20.884 11.269,20.152 10.887,19.573 11.198 M19.194 17.083 C 18.652 17.311,18.325 17.619,18.085 18.131 C 17.968 18.381,17.947 18.501,17.947 18.907 C 17.947 19.321,17.967 19.431,18.097 19.713 C 18.459 20.495,19.322 20.961,20.198 20.846 C 20.844 20.762,21.469 20.305,21.740 19.719 C 21.873 19.431,21.893 19.323,21.893 18.906 C 21.893 18.471,21.877 18.391,21.720 18.072 C 21.514 17.655,21.179 17.327,20.756 17.129 C 20.319 16.925,19.620 16.904,19.194 17.083 " fill="#1A1C1F" stroke="none" fill-rule="evenodd"></path></svg>
